packages/core/src/svgs/tokens/branded/HELLO.svg

<svg width="24" height="24" viewBox="0 0 24 24" fill="none" xmlns="http://www.w3.org/2000/svg">
<path d="M6.70756 3.52029C5.26737 4.41764 4.07945 5.66701 3.25582 7.1506C2.43219 8.63419 2 10.3031 2 12C2 13.6968 2.43219 15.3659 3.25582 16.8494C4.07945 18.3329 5.26737 19.5824 6.70756 20.4797V3.52029ZM10.2359 21.8439C11.4028 22.0519 12.5973 22.0519 13.7641 21.8439V14.4345L10.2359 14.8873V21.8439ZM17.2925 20.4797C18.7327 19.5824 19.9206 18.3329 20.7442 16.8494C21.5679 15.3659 22 13.6968 22 12C22 10.3031 21.5679 8.63419 20.7442 7.1506C19.9206 5.66701 18.7327 4.41764 17.2925 3.52029V20.4797ZM13.7641 2.15602V10.9121L10.2359 11.412V2.15602C11.4028 1.94807 12.5973 1.94807 13.7641 2.15602Z" fill="black"/>
</svg>

<svg xmlns="http://www.w3.org/2000/svg" width="24" height="24" fill="none" viewBox="0 0 24 24">
    <path fill="#000" d="M6.708 3.52a9.99 9.99 0 0 0 0 16.96zm3.528 18.324c1.167.208 2.361.208 3.528 0v-7.41l-3.528.453zm7.057-1.364a9.99 9.99 0 0 0 0-16.96zM13.764 2.156v8.756l-3.528.5V2.156a10 10 0 0 1 3.528 0"/>
</svg>
